images/search-icon.svg

<?xml version="1.0" encoding="UTF-8" standalone="no"?>
<svg width="31px" height="31px" viewBox="0 0 31 31" version="1.1" xmlns="http://www.w3.org/2000/svg" xmlns:xlink="http://www.w3.org/1999/xlink" xmlns:sketch="http://www.bohemiancoding.com/sketch/ns">
    <!-- Generator: Sketch 3.3.3 (12072) - http://www.bohemiancoding.com/sketch -->
    <title>Search</title>
    <desc>Created with Sketch.</desc>
    <defs></defs>
    <g id="Page-1" stroke="none" stroke-width="1" fill="none" fill-rule="evenodd" sketch:type="MSPage">
        <g id="Home-large" sketch:type="MSArtboardGroup" transform="translate(-1270.000000, -30.000000)">
            <g id="Header-bar" sketch:type="MSLayerGroup" transform="translate(90.000000, 0.000000)">
                <g id="Search" transform="translate(1180.000000, 30.000000)" sketch:type="MSShapeGroup">
                    <path d="M30.0894689,15.1735913 C30.0894689,23.4578764 23.3731499,30.173828 15.0894689,30.173828 C6.80578786,30.173828 0.0894688674,23.4578764 0.0894688674,15.1735913 C0.0894688674,6.88930617 6.80578786,0.173827971 15.0894689,0.173827971 C23.3731499,0.173827971 30.0894689,6.88930617 30.0894689,15.1735913" id="Fill-1" fill="#FFFFFF"></path>
                    <path d="M16.6628901,9.86535275 C15.7535267,9.86866647 14.8853473,10.2090322 14.216461,10.8234895 L15.0690188,11.7503827 C15.5054754,11.3489499 16.0730584,11.1264576 16.6671506,11.1240907 C17.9765203,11.1198302 19.0454129,12.1811655 19.0496734,13.4905559 C19.0501467,13.6832247 19.0278979,13.8749467 18.9829268,14.0600413 L20.2070881,14.3568554 C20.2752548,14.0728228 20.3098116,13.7797958 20.3088648,13.485822 C20.3017641,11.4829186 18.6667087,9.85825194 16.6628901,9.86535275" id="Fill-2" fill="#000000"></path>
                    <path d="M16.6934705,18.6518076 C13.8475084,18.6617487 11.532679,16.3625045 11.5222647,13.5164976 C11.512797,10.6704906 13.8115315,8.35515125 16.6574936,8.34568349 C19.5034557,8.33526896 21.8187585,10.6349865 21.8286995,13.4805201 C21.8386405,16.3270005 19.5389592,18.6418664 16.6934705,18.6518076 M16.6522864,6.89522352 C13.0058384,6.90800499 10.0595197,9.87472583 10.0723009,13.5217048 C10.0770347,14.8642324 10.4846151,16.1101889 11.1762237,17.1497483 L6.90017988,21.4566298 L8.91062581,23.4524324 L13.2164926,19.1157275 C14.2295263,19.7415461 15.420551,20.106528 16.6982043,20.1022675 C20.3455991,20.0890127 23.2914444,17.1222918 23.2786632,13.4757862 C23.2663553,9.82880722 20.2992079,6.88244205 16.6522864,6.89522352" id="Fill-3" fill="#000000"></path>
                </g>
            </g>
        </g>
    </g>
</svg>

<?xml version="1.0" encoding="utf-8"?>
<!-- Generator: Adobe Illustrator 16.0.0, SVG Export Plug-In . SVG Version: 6.00 Build 0)  -->
<!DOCTYPE svg PUBLIC "-//W3C//DTD SVG 1.1//EN" "http://www.w3.org/Graphics/SVG/1.1/DTD/svg11.dtd">
<svg version="1.1" id="Layer_1" xmlns:sketch="http://www.bohemiancoding.com/sketch/ns"
	 xmlns="http://www.w3.org/2000/svg" xmlns:xlink="http://www.w3.org/1999/xlink" x="0px" y="0px" width="31px" height="31px"
	 viewBox="0 0 31 31" enable-background="new 0 0 31 31" xml:space="preserve">
<title>Search</title>
<desc>Created with Sketch.</desc>
<g id="Page-1" sketch:type="MSPage">
	<g id="Home-large" transform="translate(-1270.000000, -30.000000)" sketch:type="MSArtboardGroup">
		<g id="Header-bar" transform="translate(90.000000, 0.000000)" sketch:type="MSLayerGroup">
			<g id="Search" transform="translate(1180.000000, 30.000000)" sketch:type="MSShapeGroup">
				<path id="Fill-2" fill="#FFFFFF" d="M16.663,9.865c-0.91,0.003-1.778,0.344-2.447,0.958l0.853,0.927
					c0.437-0.401,1.004-0.624,1.598-0.626c1.31-0.004,2.378,1.057,2.383,2.367c0.001,0.192-0.022,0.384-0.067,0.569l1.225,0.297
					c0.068-0.284,0.103-0.577,0.102-0.871C20.302,11.483,18.666,9.858,16.663,9.865"/>
				<path id="Fill-3" fill="#FFFFFF" d="M16.693,18.652c-2.846,0.01-5.161-2.29-5.171-5.136c-0.01-2.846,2.289-5.162,5.136-5.171
					c2.846-0.01,5.16,2.289,5.17,5.135C21.839,16.327,19.539,18.642,16.693,18.652 M16.652,6.895
					c-3.646,0.013-6.593,2.98-6.58,6.626c0.005,1.343,0.412,2.589,1.104,3.629L6.9,21.457l2.01,1.996l4.306-4.338
					c1.013,0.627,2.204,0.991,3.482,0.987c3.647-0.014,6.593-2.98,6.581-6.627C23.267,9.829,20.299,6.882,16.652,6.895"/>
			</g>
		</g>
	</g>
</g>
</svg>
